src/icons/report.svg

<svg width="16" height="16" xmlns="http://www.w3.org/2000/svg"><path fill-rule="evenodd" clip-rule="evenodd" d="M1.5 1h13l.5.5v10l-.5.5H7.707l-2.853 2.854L4 14.5V12H1.5l-.5-.5v-10l.5-.5zm6 10H14V2H2v9h2.5l.5.5v1.793l2.146-2.147L7.5 11zm0-8h1v5h-1V3zm0 7h1V9h-1v1z"/></svg>

<svg width="16" height="16" viewBox="0 0 16 16" fill="none" xmlns="http://www.w3.org/2000/svg">
<path fill-rule="evenodd" clip-rule="evenodd" d="M1.5 1H14.5L15 1.5V11.5L14.5 12H7.707L4.854 14.854L4 14.5V12H1.5L1 11.5V1.5L1.5 1ZM7.5 11H14V2H2V11H4.5L5 11.5V13.293L7.146 11.146L7.5 11ZM7.5 3H8.5V8H7.5V3ZM7.5 10H8.5V9H7.5V10Z" fill="white"/>
</svg>
